X: 248
T: the New Langolee
B: O'Neill's 248
N: "With expression"
Z: 1997 by John Chambers <jc@trillian.mit.edu>
M: 6/8
L: 1/8
K:G
D/D/ \
| D>EF GAB | c>ed cBA | BGE DEG | B>cA G2D |
| (DEF) (GAB) | (ced) (cBA) | (BGE) (DEG) | (B{d}cA) G2 ||
|| c/c/ \
| BGB dBd | e>dc dBG | G>Bd efg | G>AG GED/D/ |
| cec BdB | A>GA BGE/E/ | GFE (D<d)c | B>cA G2 ||


